Origami/16x16/apps/staruml.svg

<svg width="16" height="16" version="1" xmlns="http://www.w3.org/2000/svg">
 <path d="m8.0000101 0.54216296c0.721212 0.0100092 1.2355555 0.43184048 1.4769364 1.1301327l-0.00893-0.031494 1.1331865 3.4013845h3.821433c0.0083-1.298e-4 0.01622-1.298e-4 0.02455 0 0.456345 0.014363 0.867828 0.2209826 1.157739 0.563698l-7.6049149 2.4363171z" style="fill:#f74545"/>
 <path d="m13.020104 15.607498c0.0033-0.0029 0.0072-0.0058 0.01042-0.0088 0.448125-0.400493 0.615656-0.985944 0.437501-1.554208-0.0012-0.0039-0.0024-0.0078-0.0037-0.01172l-1.165946-3.974933 3.004468-2.1320914c0.796184-0.5211844 0.929074-1.6210249 0.302084-2.3198616l-7.6049209 2.4363173s5.0305089 7.5565067 5.0200939 7.5652967z" style="fill:#707070"/>
 <path d="m2.9694964 15.598708c0.00324 3e-3 0.0071 0.0059 0.010415 0.0088 0.5385055 0.464831 1.2951377 0.52391 1.903276 0.139161 0.011569-0.0073 0.023074-0.01485 0.034225-0.02271l3.0825977-2.161388 3.0825929 2.161388c0.01115 0.0079 0.02266 0.01544 0.03422 0.02271 0.608138 0.384749 1.364771 0.32567 1.903276-0.139161 0.0033-0.0029 0.0072-0.0058 0.01042-0.0088l-5.0305089-7.598708z" style="fill:#7b4188"/>
 <path d="m7.9999899 0.54216296c-0.7212119 0.01000918-1.2355554 0.43184048-1.4769363 1.1301327l0.00893-0.031494-1.1331859 3.4013845h-3.8214333c-0.00833-1.298e-4 -0.016221-1.298e-4 -0.024552 0-0.4563466 0.0143623-0.86782974 0.2209824-1.1577406 0.5636978l7.6049181 2.4363173z" style="fill:#ff9d45"/>
 <path d="m2.979896 15.607498c-0.00331-0.0029-0.00716-0.0058-0.010415-0.0088-0.448125-0.400483-0.6156555-0.985934-0.437501-1.554198 0.00122-0.0039 0.00244-0.0078 0.00373-0.01172l1.1659115-3.974943-3.0044682-2.1320914c-0.79618424-0.5211844-0.92907469-1.6210249-0.30208381-2.3198616l7.6049204 2.4363173s-5.0305091 7.5565067-5.0200939 7.5652967z" style="fill:#ffd945"/>
</svg>

<svg xmlns="http://www.w3.org/2000/svg" width="16" height="16" version="1">
 <path style="fill:#f74545" d="m 8.0000101,0.54216296 c 0.721212,0.0100092 1.2355555,0.43184048 1.4769364,1.13013274 l -0.00893,-0.031494 1.1331865,3.4013845 3.821433,0 c 0.0083,-1.298e-4 0.01622,-1.298e-4 0.02455,0 0.456345,0.014363 0.867828,0.2209826 1.157739,0.563698 L 8.0000101,8.0422013 Z"/>
 <path style="fill:#707070" d="m 13.020104,15.607498 c 0.0033,-0.0029 0.0072,-0.0058 0.01042,-0.0088 0.448125,-0.400493 0.615656,-0.985944 0.437501,-1.554208 -0.0012,-0.0039 -0.0024,-0.0078 -0.0037,-0.01172 L 12.298379,10.057837 15.302847,7.9257456 C 16.099031,7.4045612 16.231921,6.3047207 15.604931,5.605884 L 8.0000101,8.0422013 c 0,0 5.0305089,7.5565067 5.0200939,7.5652967 z"/>
 <path style="fill:#7b4188" d="m 2.9694964,15.598708 c 0.00324,0.003 0.0071,0.0059 0.010415,0.0088 0.5385055,0.464831 1.2951377,0.52391 1.903276,0.139161 0.011569,-0.0073 0.023074,-0.01485 0.034225,-0.02271 l 3.0825977,-2.161388 3.0825929,2.161388 c 0.01115,0.0079 0.02266,0.01544 0.03422,0.02271 0.608138,0.384749 1.364771,0.32567 1.903276,-0.139161 0.0033,-0.0029 0.0072,-0.0058 0.01042,-0.0088 L 8.0000101,8 Z"/>
 <path style="fill:#ff9d45" d="M 7.9999899,0.54216296 C 7.278778,0.55217214 6.7644345,0.97400344 6.5230536,1.6722957 l 0.00893,-0.031494 -1.1331859,3.4013845 -3.8214333,0 c -0.00833,-1.298e-4 -0.016221,-1.298e-4 -0.024552,0 C 1.0964658,5.0565485 0.68498266,5.2631686 0.39507181,5.605884 L 7.9999899,8.0422013 Z"/>
 <path style="fill:#ffd945" d="m 2.979896,15.607498 c -0.00331,-0.0029 -0.00716,-0.0058 -0.010415,-0.0088 C 2.521356,15.198215 2.3538255,14.612764 2.53198,14.0445 2.5332,14.0406 2.53442,14.0367 2.53571,14.03278 L 3.7016215,10.057837 0.69715334,7.9257456 C -0.0990309,7.4045612 -0.23192135,6.3047207 0.39506953,5.605884 L 7.9999899,8.0422013 c 0,0 -5.0305091,7.5565067 -5.0200939,7.5652967 z"/>
</svg>
